X: 162
T:Jean's reel
S:Toby A. Rider, Fiddle-L, 8/97
R:Reel
C:Bobby MacLeod
O:Scotland
M:4/4
K:F
C2|\
F2FG AFAc|fA (3AAA dAcA|GFGA GFD2|GBAG FEDC|\
F2FG AFAc|fgaf gfdf|c2Ac fdcA|GFEG F2||\
Ac|\
fAdf AdfA|cfAc fAcf|eccg ecgc|fefg acfg|\
afge fedc|defe dcAc|d2cA fdcA|GFEG F2||
FG|\
ACCA CCAC|FACF ACFA|ECCG ECGC|cC=Bc _BGEG|\
ACCA CCAC|FACF ACFA|ECEG cC=Bc|BGEG F2||\
Ac|\
fAdf AdfA|cfAc fAcf|eccg ecgc|fefg acfg|\
afge fedc|defe dcAc|d2cA fdcA|GFEG F2||
